X: 133
T: No_8_I_Paint_My_Face_Red.krn
N: Derived from No_8_I_Paint_My_Face_Red.krn
%%abc-version 2.0
%%abcx-abcm2ps-target-version 5.9.1 (29 Sep 2008)
%%abc-creator hum2abc beta
%%abcx-conversion-date 2019/03/15 08:35:45
%%humdrum-veritas 3023785005
%%humdrum-veritas-data 3578244129
%%linebreak <none>
%%barnumbers 0
L: 1/8
M: 2/4
K: G clef=bass
[K:clef=bass][M:2/4]z D DD | 
D3D ||  
[M:3/8]CA,A, ||  
[M:2/4]A,3E, | 
E,E, E, z | 
CC A,A, ||  
[M:3/4]A,3C A,A, ||  
[M:2/4]A,4 | 
CA, G,G, | 
G,4 | 
G,E, E, z | 
A,A, G,G, ||  
[M:3/4]G,3A, G,A, ||  
[M:2/4]G,2G,E, | 
D,D, D,D,/ z/ | 
G,2G,E, | 
D,2D,D, | 
D,B,, G,,G,, | 
G,,4 |]  



